lib/img/icons/ui/locate.svg

<?xml version="1.0" encoding="utf-8"?>
<!-- Generated by IcoMoon.io -->
<!DOCTYPE svg PUBLIC "-//W3C//DTD SVG 1.1//EN" "http://www.w3.org/Graphics/SVG/1.1/DTD/svg11.dtd">
<svg version="1.1" xmlns="http://www.w3.org/2000/svg" xmlns:xlink="http://www.w3.org/1999/xlink" width="32" height="32" viewBox="0 0 32 32">
<path fill="rgb(0, 0, 0)" d="M16.047 0.447c-8.615 0-15.6 6.983-15.6 15.6s6.984 15.6 15.6 15.6c8.617 0 15.6-6.983 15.6-15.6s-6.982-15.6-15.6-15.6zM18 29.079v-5.032h-3.953v5.032c-5.676-0.869-10.164-5.357-11.031-11.032l4.984-0.047v-3.953h-4.984c0.867-5.676 5.355-10.163 11.031-11.032v4.985h3.953v-4.985c5.676 0.869 10.209 5.356 11.078 11.032h-5.031l-0.047 3.953h5.078c-0.869 5.676-5.402 10.21-11.078 11.079z"></path>
</svg>

<svg xmlns="http://www.w3.org/2000/svg" width="32" height="32" viewBox="0 0 32 32" class="svg-icon">
    <path d="M16.047.447c-8.615 0-15.6 6.983-15.6 15.6s6.984 15.6 15.6 15.6c8.617 0 15.6-6.983 15.6-15.6s-6.982-15.6-15.6-15.6zM18 29.079v-5.032h-3.953v5.032C8.371 28.21 3.883 23.722 3.016 18.047L8 18v-3.953H3.016C3.883 8.371 8.371 3.884 14.047 3.015V8H18V3.015c5.676.869 10.209 5.356 11.078 11.032h-5.031L24 18h5.078C28.209 23.676 23.676 28.21 18 29.079z"/>
</svg>
